build/flags/Slovakia.svg

<svg xmlns="http://www.w3.org/2000/svg" fill="none" viewBox="0 0 28 28" focusable="false"><mask id="Slovakia_svg__c" width="9.233" height="11.898" x="5.383" y="8" maskUnits="userSpaceOnUse"><g fill-rule="evenodd" filter="url(#Slovakia_svg__a)"><path fill="#F73744" d="M5.61736 9.28209C5.6449 8.56618 6.23327 8 6.94971 8L13.0503 8C13.7667 8 14.3551 8.56618 14.3827 9.28209L14.6419 16.0226C14.6576 16.4294 14.4864 16.8212 14.1773 17.0862L11.3016 19.551C10.5526 20.193 9.4474 20.193 8.69843 19.551L5.82274 17.0862C5.51359 16.8212 5.34246 16.4294 5.35811 16.0226L5.61736 9.28209Z"/><path fill="#FFF" d="M13.5933 6.72186C13.4161 6.68506 13.2351 6.66667 13.0503 6.66667L6.94971 6.66667C6.76488 6.66667 6.58386 6.68506 6.40667 6.72186C6.24674 6.75507 6.08993 6.80326 5.93623 6.86644C5.7844 6.92885 5.64065 7.0038 5.50498 7.09128C5.36113 7.18403 5.22636 7.29088 5.10068 7.41182C4.975 7.53276 4.86305 7.66332 4.76484 7.8035C4.67221 7.93571 4.59179 8.07647 4.52359 8.22579C4.45455 8.37695 4.40037 8.5318 4.36103 8.69033C4.31746 8.86598 4.29212 9.04615 4.28502 9.23085L4.02577 15.9713C4.01794 16.1748 4.03245 16.374 4.06928 16.569C4.10612 16.764 4.16529 16.9548 4.24679 17.1413C4.32829 17.3279 4.42806 17.5009 4.54609 17.6605C4.66413 17.82 4.80044 17.966 4.95502 18.0985L7.8307 20.5634C7.99249 20.702 8.16422 20.8233 8.34591 20.9272C8.50926 21.0206 8.68065 21.0999 8.86009 21.1652C9.03851 21.2301 9.21978 21.2792 9.40391 21.3126C9.59939 21.3481 9.79809 21.3658 10 21.3658C10.2019 21.3658 10.4006 21.3481 10.5961 21.3126C10.7802 21.2792 10.9615 21.2301 11.1399 21.1652C11.3194 21.0999 11.4908 21.0206 11.6541 20.9272C11.8358 20.8233 12.0075 20.702 12.1693 20.5634L15.045 18.0985C15.1996 17.966 15.3359 17.82 15.4539 17.6605C15.5719 17.501 15.6717 17.3279 15.7532 17.1413C15.8347 16.9548 15.8939 16.764 15.9307 16.569C15.9676 16.374 15.9821 16.1748 15.9742 15.9713L15.715 9.23084C15.7079 9.04614 15.6826 8.86596 15.639 8.6903C15.5996 8.53178 15.5455 8.37694 15.4764 8.22579C15.4082 8.07647 15.3278 7.93571 15.2352 7.80351C15.137 7.66333 15.025 7.53276 14.8993 7.41182C14.7736 7.29088 14.6389 7.18403 14.495 7.09127C14.3594 7.00379 14.2156 6.92885 14.0638 6.86644C13.9101 6.80326 13.7533 6.75506 13.5933 6.72186ZM6.94971 8C6.23327 8 5.6449 8.56618 5.61736 9.28209L5.35811 16.0226C5.34246 16.4294 5.51359 16.8212 5.82274 17.0862L8.69843 19.551C9.4474 20.193 10.5526 20.193 11.3016 19.551L14.1773 17.0862C14.4864 16.8212 14.6576 16.4294 14.6419 16.0226L14.3827 9.28209C14.3551 8.56618 13.7667 8 13.0503 8L6.94971 8Z"/></g></mask><defs><filter id="Slovakia_svg__a"><feColorMatrix values="0 0 0 0 1 0 0 0 0 1 0 0 0 0 1 0 0 0 1 0"/></filter></defs><mask id="Slovakia_svg__b" width="28" height="20" x="0" y="4" maskUnits="userSpaceOnUse"><g filter="url(#Slovakia_svg__a)"><rect width="28" height="20" y="4" fill="#FFF" rx="3"/><rect width="27.5" height="19.5" x=".25" y="4.25" stroke="#F5F5F5" stroke-width=".5" rx="2.75"/></g></mask><path fill="none" d="M0 0H28V28H0z"/><rect width="28" height="20" y="4" fill="#FFF" rx="3"/><rect width="27.5" height="19.5" x=".25" y="4.25" stroke="#D6D8DD" stroke-width=".5" rx="2.75"/><g mask="url(#Slovakia_svg__b)"><path fill="#0C47B7" fill-rule="evenodd" d="M0 17.3333L28 17.3333L28 10.6666L0 10.6666L0 17.3333Z"/><path d="M28 17.3333L28 10.6666L0 10.6666L0 17.3333L28 17.3333Z"/><path fill="#E53B35" fill-rule="evenodd" d="M0 24L28 24L28 17.3334L0 17.3334L0 24Z"/><path d="M28 24L28 17.3334L0 17.3334L0 24L28 24Z"/><path fill="#F73744" fill-rule="evenodd" d="M5.61736 9.28209C5.6449 8.56618 6.23327 8 6.94971 8L13.0503 8C13.7667 8 14.3551 8.56618 14.3827 9.28209L14.6419 16.0226C14.6576 16.4294 14.4864 16.8212 14.1773 17.0862L11.3016 19.551C10.5526 20.193 9.4474 20.193 8.69843 19.551L5.82274 17.0862C5.51359 16.8212 5.34246 16.4294 5.35811 16.0226L5.61736 9.28209Z"/><path fill="#FFF" fill-rule="evenodd" d="M13.5933 6.72186C13.4161 6.68506 13.2351 6.66667 13.0503 6.66667L6.94971 6.66667C6.76488 6.66667 6.58386 6.68506 6.40667 6.72186C6.24674 6.75507 6.08993 6.80326 5.93623 6.86644C5.7844 6.92885 5.64065 7.0038 5.50498 7.09128C5.36113 7.18403 5.22636 7.29088 5.10068 7.41182C4.975 7.53276 4.86305 7.66332 4.76484 7.8035C4.67221 7.93571 4.59179 8.07647 4.52359 8.22579C4.45455 8.37695 4.40037 8.5318 4.36103 8.69033C4.31746 8.86598 4.29212 9.04615 4.28502 9.23085L4.02577 15.9713C4.01794 16.1748 4.03245 16.374 4.06928 16.569C4.10612 16.764 4.16529 16.9548 4.24679 17.1413C4.32829 17.3279 4.42806 17.5009 4.54609 17.6605C4.66413 17.82 4.80044 17.966 4.95502 18.0985L7.8307 20.5634C7.99249 20.702 8.16422 20.8233 8.34591 20.9272C8.50926 21.0206 8.68065 21.0999 8.86009 21.1652C9.03851 21.2301 9.21978 21.2792 9.40391 21.3126C9.59939 21.3481 9.79809 21.3658 10 21.3658C10.2019 21.3658 10.4006 21.3481 10.5961 21.3126C10.7802 21.2792 10.9615 21.2301 11.1399 21.1652C11.3194 21.0999 11.4908 21.0206 11.6541 20.9272C11.8358 20.8233 12.0075 20.702 12.1693 20.5634L15.045 18.0985C15.1996 17.966 15.3359 17.82 15.4539 17.6605C15.5719 17.501 15.6717 17.3279 15.7532 17.1413C15.8347 16.9548 15.8939 16.764 15.9307 16.569C15.9676 16.374 15.9821 16.1748 15.9742 15.9713L15.715 9.23084C15.7079 9.04614 15.6826 8.86596 15.639 8.6903C15.5996 8.53178 15.5455 8.37694 15.4764 8.22579C15.4082 8.07647 15.3278 7.93571 15.2352 7.80351C15.137 7.66333 15.025 7.53276 14.8993 7.41182C14.7736 7.29088 14.6389 7.18403 14.495 7.09127C14.3594 7.00379 14.2156 6.92885 14.0638 6.86644C13.9101 6.80326 13.7533 6.75506 13.5933 6.72186ZM6.94971 8C6.23327 8 5.6449 8.56618 5.61736 9.28209L5.35811 16.0226C5.34246 16.4294 5.51359 16.8212 5.82274 17.0862L8.69843 19.551C9.4474 20.193 10.5526 20.193 11.3016 19.551L14.1773 17.0862C14.4864 16.8212 14.6576 16.4294 14.6419 16.0226L14.3827 9.28209C14.3551 8.56618 13.7667 8 13.0503 8L6.94971 8Z"/><g mask="url(#Slovakia_svg__c)"><path fill="#FFF" fill-rule="evenodd" d="M9.33331 15C9.33331 14.8159 9.18407 14.6667 8.99998 14.6667L7.66665 14.6667C7.48255 14.6667 7.33331 14.5175 7.33331 14.3334L7.33331 13.6667C7.33331 13.4826 7.48255 13.3334 7.66665 13.3334L8.99998 13.3334C9.18407 13.3334 9.33331 13.1841 9.33331 13L9.33331 12.3334C9.33331 12.1493 9.18407 12 8.99998 12L8.33331 12C8.14922 12 7.99998 11.8508 7.99998 11.6667L7.99998 11C7.99998 10.8159 8.14922 10.6667 8.33331 10.6667L8.99998 10.6667C9.18407 10.6667 9.33331 10.5175 9.33331 10.3334L9.33331 9.66671C9.33331 9.48261 9.48255 9.33337 9.66665 9.33337L10.3333 9.33337C10.5174 9.33337 10.6666 9.48261 10.6666 9.66671L10.6666 10.3334C10.6666 10.5175 10.8159 10.6667 11 10.6667L11.6666 10.6667C11.8507 10.6667 12 10.8159 12 11L12 11.6667C12 11.8508 11.8507 12 11.6666 12L11 12C10.8159 12 10.6666 12.1493 10.6666 12.3334L10.6666 13C10.6666 13.1841 10.8159 13.3334 11 13.3334L12.3333 13.3334C12.5174 13.3334 12.6666 13.4826 12.6666 13.6667L12.6666 14.3334C12.6666 14.5175 12.5174 14.6667 12.3333 14.6667L11 14.6667C10.8159 14.6667 10.6666 14.8159 10.6666 15L10.6666 17C10.6666 17.1841 10.5174 17.3334 10.3333 17.3334L9.66665 17.3334C9.48255 17.3334 9.33331 17.1841 9.33331 17L9.33331 15Z"/><path d="M7.66665 14.6667C7.48255 14.6667 7.33331 14.5175 7.33331 14.3334L7.33331 13.6667C7.33331 13.4826 7.48255 13.3334 7.66665 13.3334L8.99998 13.3334C9.18407 13.3334 9.33331 13.1841 9.33331 13L9.33331 12.3334C9.33331 12.1493 9.18407 12 8.99998 12L8.33331 12C8.14922 12 7.99998 11.8508 7.99998 11.6667L7.99998 11C7.99998 10.8159 8.14922 10.6667 8.33331 10.6667L8.99998 10.6667C9.18407 10.6667 9.33331 10.5175 9.33331 10.3334L9.33331 9.66671C9.33331 9.48261 9.48255 9.33337 9.66665 9.33337L10.3333 9.33337C10.5174 9.33337 10.6666 9.48261 10.6666 9.66671L10.6666 10.3334C10.6666 10.5175 10.8159 10.6667 11 10.6667L11.6666 10.6667C11.8507 10.6667 12 10.8159 12 11L12 11.6667C12 11.8508 11.8507 12 11.6666 12L11 12C10.8159 12 10.6666 12.1493 10.6666 12.3334L10.6666 13C10.6666 13.1841 10.8159 13.3334 11 13.3334L12.3333 13.3334C12.5174 13.3334 12.6666 13.4826 12.6666 13.6667L12.6666 14.3334C12.6666 14.5175 12.5174 14.6667 12.3333 14.6667L11 14.6667C10.8159 14.6667 10.6666 14.8159 10.6666 15L10.6666 17C10.6666 17.1841 10.5174 17.3334 10.3333 17.3334L9.66665 17.3334C9.48255 17.3334 9.33331 17.1841 9.33331 17L9.33331 15C9.33331 14.8159 9.18407 14.6667 8.99998 14.6667L7.66665 14.6667Z"/><path fill="#1251A1" fill-rule="evenodd" d="M11.2035 17.4254C10.9889 16.9766 10.5307 16.6666 10 16.6666C9.46935 16.6666 9.01109 16.9766 8.79646 17.4254C7.17545 17.6808 6 18.4384 6 19.3333C6 20.4379 7.79086 21.3333 10 21.3333C12.2091 21.3333 14 20.4379 14 19.3333C14 18.4384 12.8246 17.6808 11.2035 17.4254Z"/><path d="M11.2035 17.4254C10.9889 16.9766 10.5307 16.6666 10 16.6666C9.46935 16.6666 9.01109 16.9766 8.79646 17.4254C7.17545 17.6808 6 18.4384 6 19.3333C6 20.4379 7.79086 21.3333 10 21.3333C12.2091 21.3333 14 20.4379 14 19.3333C14 18.4384 12.8246 17.6808 11.2035 17.4254Z"/></g></g></svg>

<svg xmlns="http://www.w3.org/2000/svg" fill="none" viewBox="0 0 28 28" focusable="false"><path fill="none" d="M0 0h28v28H0z"/><rect width="28" height="20" y="4" fill="#FFF" rx="3"/><rect width="27.5" height="19.5" x=".25" y="4.25" stroke="#D6D8DD" stroke-width=".5" rx="3"/><mask id="Slovakia_svg__a" width="28" height="20" x="0" y="4" mask-type="alpha" maskUnits="userSpaceOnUse"><rect width="28" height="20" y="4" fill="#FFF" rx="3"/><rect width="27.5" height="19.5" x=".25" y="4.25" stroke="#F5F5F5" stroke-width=".5" rx="3"/></mask><g mask="url(#Slovakia_svg__a)"><path fill="#0C47B7" fill-rule="evenodd" d="M0 17.33h28v-6.67H0z"/><path d="M28 17.33v-6.67H0v6.67z"/></g><g mask="url(#Slovakia_svg__a)"><path fill="#E53B35" fill-rule="evenodd" d="M0 24h28v-6.67H0z"/><path d="M28 24v-6.67H0V24z"/></g><g mask="url(#Slovakia_svg__a)"><path fill="#F73744" fill-rule="evenodd" d="M5.61 9.28C5.64 8.56 6.23 8 6.94 8h6.11c.71 0 1.3.56 1.33 1.28l.26 6.74c.01.4-.16.8-.47 1.06l-2.87 2.47c-.75.64-1.86.64-2.61 0l-2.87-2.47c-.31-.26-.48-.66-.47-1.06z"/><path fill="#FFF" fill-rule="evenodd" d="M13.59 6.72q-.27-.06-.54-.06H6.94q-.27 0-.54.06-.24.05-.47.14-.23.1-.43.23-.22.14-.4.32-.19.18-.34.39-.14.2-.24.42-.1.23-.16.47-.07.26-.08.54l-.26 6.74q-.01.3.04.59.06.3.18.58t.3.52q.18.23.41.43l2.88 2.47q.24.21.51.36.25.14.52.24.26.1.54.15.29.05.6.05.3 0 .59-.05.28-.05.54-.15.27-.1.52-.24.27-.15.51-.36l2.88-2.47q.23-.2.41-.43.18-.24.3-.52t.18-.58q.05-.29.04-.59l-.26-6.74q-.01-.28-.08-.54-.05-.24-.16-.47-.1-.22-.24-.42-.15-.21-.34-.39-.18-.18-.4-.32-.2-.13-.43-.23-.23-.09-.47-.14M5.61 9.28C5.64 8.56 6.23 8 6.94 8h6.11c.71 0 1.3.56 1.33 1.28l.26 6.74c.01.4-.16.8-.47 1.06l-2.87 2.47c-.75.64-1.86.64-2.61 0l-2.87-2.47c-.31-.26-.48-.66-.47-1.06z"/><mask id="Slovakia_svg__b" width="9.233" height="11.898" x="5.383" y="8" mask-type="alpha" maskUnits="userSpaceOnUse"><path fill="#F73744" fill-rule="evenodd" d="M5.61 9.28C5.64 8.56 6.23 8 6.94 8h6.11c.71 0 1.3.56 1.33 1.28l.26 6.74c.01.4-.16.8-.47 1.06l-2.87 2.47c-.75.64-1.86.64-2.61 0l-2.87-2.47c-.31-.26-.48-.66-.47-1.06z"/><path fill="#FFF" fill-rule="evenodd" d="M13.59 6.72q-.27-.06-.54-.06H6.94q-.27 0-.54.06-.24.05-.47.14-.23.1-.43.23-.22.14-.4.32-.19.18-.34.39-.14.2-.24.42-.1.23-.16.47-.07.26-.08.54l-.26 6.74q-.01.3.04.59.06.3.18.58t.3.52q.18.23.41.43l2.88 2.47q.24.21.51.36.25.14.52.24.26.1.54.15.29.05.6.05.3 0 .59-.05.28-.05.54-.15.27-.1.52-.24.27-.15.51-.36l2.88-2.47q.23-.2.41-.43.18-.24.3-.52t.18-.58q.05-.29.04-.59l-.26-6.74q-.01-.28-.08-.54-.05-.24-.16-.47-.1-.22-.24-.42-.15-.21-.34-.39-.18-.18-.4-.32-.2-.13-.43-.23-.23-.09-.47-.14M5.61 9.28C5.64 8.56 6.23 8 6.94 8h6.11c.71 0 1.3.56 1.33 1.28l.26 6.74c.01.4-.16.8-.47 1.06l-2.87 2.47c-.75.64-1.86.64-2.61 0l-2.87-2.47c-.31-.26-.48-.66-.47-1.06z"/></mask><g mask="url(#Slovakia_svg__b)"><path fill="#FFF" fill-rule="evenodd" d="M9.33 15c0-.19-.15-.34-.34-.34H7.66c-.18 0-.33-.15-.33-.33v-.67c0-.18.15-.33.33-.33h1.33c.19 0 .34-.15.34-.33v-.67c0-.19-.15-.33-.34-.33h-.66c-.19 0-.34-.15-.34-.34V11c0-.19.15-.34.34-.34h.66c.19 0 .34-.15.34-.33v-.67c0-.18.15-.33.33-.33h.67c.18 0 .33.15.33.33v.67c0 .18.15.33.34.33h.66c.19 0 .34.15.34.34v.66c0 .19-.15.34-.34.34H11c-.19 0-.34.14-.34.33V13c0 .18.15.33.34.33h1.33c.18 0 .33.15.33.33v.67c0 .18-.15.33-.33.33H11c-.19 0-.34.15-.34.34v2c0 .18-.15.33-.33.33h-.67c-.18 0-.33-.15-.33-.33z"/><path d="M7.66 14.66c-.18 0-.33-.15-.33-.33v-.67c0-.18.15-.33.33-.33h1.33c.19 0 .34-.15.34-.33v-.67c0-.19-.15-.33-.34-.33h-.66c-.19 0-.34-.15-.34-.34V11c0-.19.15-.34.34-.34h.66c.19 0 .34-.15.34-.33v-.67c0-.18.15-.33.33-.33h.67c.18 0 .33.15.33.33v.67c0 .18.15.33.34.33h.66c.19 0 .34.15.34.34v.66c0 .19-.15.34-.34.34H11c-.19 0-.34.14-.34.33V13c0 .18.15.33.34.33h1.33c.18 0 .33.15.33.33v.67c0 .18-.15.33-.33.33H11c-.19 0-.34.15-.34.34v2c0 .18-.15.33-.33.33h-.67c-.18 0-.33-.15-.33-.33v-2c0-.19-.15-.34-.34-.34z"/></g><g mask="url(#Slovakia_svg__b)"><mask id="Slovakia_svg__c" fill="#fff"><path fill-rule="evenodd" d="M11.204 17.425a1.333 1.333 0 0 0-2.408 0C7.176 17.681 6 18.438 6 19.333c0 1.105 1.79 2 4 2s4-.895 4-2c0-.895-1.175-1.652-2.796-1.908" clip-rule="evenodd"/></mask><path fill="#1251A1" fill-rule="evenodd" d="M11.204 17.425a1.333 1.333 0 0 0-2.408 0C7.176 17.681 6 18.438 6 19.333c0 1.105 1.79 2 4 2s4-.895 4-2c0-.895-1.175-1.652-2.796-1.908" clip-rule="evenodd" mask="url(#Slovakia_svg__c)"/></g></g></svg>
